{
 "compressionlevel": -1,
 "height": 10,
 "infinite": false,
 "layers": [
  {
   "data": [
    2,
    2,
    2,
    2,
    2,
    2,
    2,
    2,
    2,
    2,
    2,
    2,
    2,
    2,
    2,
    7,
    7,
    7,
    7,
    7,
    7,
    7,
    7,
    7,
    7,
    7,
    7,
    2,
    2,
    7,
    7,
    7,
    7,
    7,
    7,
    7,
    7,
    7,
    7,
    7,
    7,
    2,
    2,
    7,
    7,
    7,
    7,
    7,
    7,
    7,
    7,
    7,
    7,
    7,
    7,
    2,
    2,
    7,
    7,
    7,
    7,
    7,
    7,
    7,
    7,
    7,
    7,
    7,
    7,
    2,
    2,
    7,
    7,
    7,
    7,
    7,
    7,
    7,
    7,
    7,
    7,
    7,
    7,
    2,
    2,
    7,
    7,
    7,
    7,
    7,
    7,
    7,
    7,
    7,
    7,
    7,
    7,
    2,
    2,
    7,
    7,
    7,
    7,
    7,
    7,
    7,
    7,
    7,
    7,
    7,
    7,
    2,
    2,
    7,
    7,
    7,
    7,
    7,
    7,
    7,
    7,
    7,
    7,
    7,
    7,
    2,
    2,
    2,
    2,
    2,
    2,
    2,
    2,
    7,
    2,
    2,
    2,
    2,
    2,
    2
   ],
   "height": 10,
   "id": 1,
   "name": "ground",
   "opacity": 1,
   "type": "tilelayer",
   "visible": true,
   "width": 14,
   "x": 0,
   "y": 0
  },
  {
   "data": [
    0,
    0,
    0,
    0,
    0,
    0,
    0,
    0,
    0,
    0,
    0,
    0,
    0,
    0,
    0,
    0,
    0,
    0,
    0,
    0,
    0,
    0,
    0,
    0,
    0,
    0,
    0,
    0,
    0,
    0,
    0,
    0,
    0,
    0,
    0,
    0,
    0,
    0,
    0,
    0,
    0,
    0,
    0,
    0,
    0,
    0,
    0,
    0,
    0,
    0,
    0,
    0,
    0,
    0,
    0,
    0,
    0,
    0,
    0,
    0,
    0,
    0,
    0,
    0,
    0,
    0,
    0,
    0,
    0,
    0,
    0,
    0,
    0,
    0,
    0,
    0,
    0,
    0,
    0,
    0,
    0,
    0,
    0,
    0,
    0,
    0,
    0,
    0,
    0,
    0,
    0,
    0,
    0,
    0,
    0,
    0,
    0,
    0,
    0,
    0,
    0,
    0,
    0,
    0,
    0,
    0,
    0,
    0,
    0,
    0,
    0,
    0,
    0,
    0,
    0,
    0,
    0,
    0,
    0,
    0,
    0,
    0,
    0,
    0,
    0,
    0,
    0,
    0,
    0,
    0,
    0,
    0,
    0,
    0,
    0,
    0,
    0,
    0,
    0,
    0
   ],
   "height": 10,
   "id": 2,
   "name": "decor",
   "opacity": 1,
   "type": "tilelayer",
   "visible": true,
   "width": 14,
   "x": 0,
   "y": 0
  },
  {
   "draworder": "topdown",
   "id": 3,
   "name": "objects",
   "objects": [
    {
     "height": 32,
     "id": 1,
     "name": "",
     "properties": [
      {
       "name": "name",
       "type": "string",
       "value": "from_village_vault"
      }
     ],
     "rotation": 0,
     "type": "entry",
     "visible": true,
     "width": 32,
     "x": 224,
     "y": 256
    },
    {
     "height": 32,
     "id": 2,
     "name": "",
     "properties": [
      {
       "name": "target_entry",
       "type": "string",
       "value": "from_vault"
      },
      {
       "name": "target_map",
       "type": "string",
       "value": "village"
      }
     ],
     "rotation": 0,
     "type": "door",
     "visible": true,
     "width": 32,
     "x": 224,
     "y": 288
    },
    {
     "height": 32,
     "id": 3,
     "name": "",
     "properties": [
      {
       "name": "item",
       "type": "string",
       "value": "leather_vest"
      }
     ],
     "rotation": 0,
     "type": "pickup",
     "visible": true,
     "width": 32,
     "x": 224,
     "y": 64
    },
    {
     "height": 32,
     "id": 4,
     "name": "",
     "properties": [
      {
       "name": "item",
       "type": "string",
       "value": "heal_potion"
      }
     ],
     "rotation": 0,
     "type": "pickup",
     "visible": true,
     "width": 32,
     "x": 160,
     "y": 128
    },
    {
     "height": 32,
     "id": 5,
     "name": "",
     "properties": [
      {
       "name": "item",
       "type": "string",
       "value": "mana_potion"
      }
     ],
     "rotation": 0,
     "type": "pickup",
     "visible": true,
     "width": 32,
     "x": 288,
     "y": 128
    }
   ],
   "opacity": 1,
   "type": "objectgroup",
   "visible": true,
   "x": 0,
   "y": 0
  }
 ],
 "nextlayerid": 4,
 "nextobjectid": 6,
 "orientation": "orthogonal",
 "renderorder": "right-down",
 "tiledversion": "1.11.0",
 "tileheight": 32,
 "tilesets": [
  {
   "firstgid": 1,
   "source": "../tilesets/tileset.tsj"
  }
 ],
 "tilewidth": 32,
 "type": "map",
 "version": "1.10",
 "width": 14
}